src/icons/icon-96-disabled.svg

<svg height="96" viewBox="0 0 96 96" width="96" xmlns="http://www.w3.org/2000/svg"><g fill="none"><circle cx="48" cy="48" fill="#fff" r="48"/><g fill="#0c0c0d" fill-opacity=".8"><path d="m33 32.25c0-2.0710678 1.6789322-3.75 3.75-3.75s3.75 1.6789322 3.75 3.75v31.5c0 2.0710678-1.6789322 3.75-3.75 3.75s-3.75-1.6789322-3.75-3.75z"/><path d="m55.5 32.25c0-2.0710678 1.6789322-3.75 3.75-3.75s3.75 1.6789322 3.75 3.75v31.5c0 2.0710678-1.6789322 3.75-3.75 3.75s-3.75-1.6789322-3.75-3.75z"/></g></g></svg>

<?xml version="1.0" encoding="UTF-8"?>
<svg width="96px" height="96px" viewBox="0 0 96 96" version="1.1" xmlns="http://www.w3.org/2000/svg" xmlns:xlink="http://www.w3.org/1999/xlink">
    <!-- Generator: Sketch 52.5 (67469) - http://www.bohemiancoding.com/sketch -->
    <title>icon-96-disabled</title>
    <desc>Created with Sketch.</desc>
    <g id="icon-96-disabled" stroke="none" stroke-width="1" fill="none" fill-rule="evenodd">
        <g id="Disabled" fill-rule="nonzero">
            <circle id="Background" fill="#FFFFFF" cx="48" cy="48" r="48"></circle>
            <path d="M33,32.25 C33,30.1789322 34.6789322,28.5 36.75,28.5 C38.8210678,28.5 40.5,30.1789322 40.5,32.25 L40.5,63.75 C40.5,65.8210678 38.8210678,67.5 36.75,67.5 C34.6789322,67.5 33,65.8210678 33,63.75 L33,32.25 Z" id="Line" fill-opacity="0.8" fill="#0C0C0D"></path>
            <path d="M55.5,32.25 C55.5,30.1789322 57.1789322,28.5 59.25,28.5 C61.3210678,28.5 63,30.1789322 63,32.25 L63,63.75 C63,65.8210678 61.3210678,67.5 59.25,67.5 C57.1789322,67.5 55.5,65.8210678 55.5,63.75 L55.5,32.25 Z" id="Line" fill-opacity="0.8" fill="#0C0C0D"></path>
        </g>
    </g>
</svg>
